packages/match-logos/color/svg/gojek.svg

<svg fill="none" height="30" viewBox="0 0 128 30" width="128" xmlns="http://www.w3.org/2000/svg" xmlns:xlink="http://www.w3.org/1999/xlink"><clipPath id="a"><path d="m0 0h127.5v30h-127.5z"/></clipPath><g clip-path="url(#a)"><path d="m9.39319 15.0086c0-3.0943 2.51781-5.6036 5.62611-5.6036 3.1071 0 5.626 2.5082 5.626 5.6036 0 3.0964-2.5178 5.6046-5.625 5.6046-3.1082 0-5.62711-2.5093-5.62711-5.6036" fill="#00aa13"/><path d="m15.0182.0664434c-8.2843 0-15.0000115 6.6899966-15.0000115 14.9432566 0 6.195 3.7553615 11.4835 9.2078615 13.785.38342.1611.79785.2351 1.21335.2167s.8217-.1288 1.1894-.3232c.3676-.1945.6876-.4681.9367-.8012.2491-.333.4211-.7172.5038-1.1248.1274-.6354.0304-1.2954-.2744-1.8673s-.7986-1.0203-1.3971-1.2688v-.0011c-3.37926-1.4111-5.75461-4.7357-5.75461-8.6153 0-5.15897 4.19678-9.34076 9.37611-9.34076 5.1792 0 9.3771 4.18179 9.3771 9.34076 0 3.8785-2.3754 7.2042-5.7557 8.6142v.0022c-.5986.2487-1.0924.6974-1.397 1.2696-.3047.5722-.4013 1.2324-.2735 1.8679s.4722 1.2069.9744 1.6168 1.1311.6328 1.7793.6307c.3727-.0023.7416-.0761 1.0864-.2175 5.4525-2.3014 9.209-7.5911 9.209-13.785 0-8.2543-6.7168-14.9442995-15.0011-14.9442995" fill="#00aa13"/><path d="m73.5439 13.3511c0-2.7032-1.861-4.71325-4.7625-4.71325-2.9035 0-4.7635 2.01105-4.7635 4.71425 0 2.7011 1.861 4.7143 4.7635 4.7143 2.9015 0 4.7625-2.0121 4.7625-4.7143zm-14.1953.001c0-4.96496 3.9428-8.7996 9.4328-8.7996 5.52 0 9.4318 3.83464 9.4318 8.7996 0 4.965-3.9118 8.7986-9.4318 8.7986-5.4889 0-9.4328-3.8336-9.4328-8.7986zm17.2618 12.3943h2.5232c1.3564 0 1.83-.5035 1.83-1.6971v-19.49145h4.6682v19.55355c0 4.1175-1.6714 5.8768-6.1189 5.8768h-2.9036v-4.2428zm-24.7457-11.4857c0 2.0572-2.0958 3.7007-4.7625 3.7007-3.015 0-4.889-1.771-4.889-4.7121 0-2.7193 2.0004-4.58573 5.0797-4.58573 2.445 0 4.5718 1.70783 4.5718 3.63643zm.1907-9.71356v1.965h-.0643c-1.2064-1.26429-3.2057-1.96072-5.5864-1.96072-5.1118 0-8.8897 3.795-8.8897 8.69678 0 5.0925 3.8732 8.8243 9.0482 8.8243 2.3165 0 4.2536-.7286 5.429-2.025h.0642v1.695c0 2.2768-1.9692 3.9525-4.5728 3.9525-2.625 0-4.1529-.7371-5.4793-2.0004l-3.0396 2.9143c2.0367 2.1536 5.1075 3.3782 8.6142 3.3782 5.3347 0 8.984-3.5646 8.984-8.3078v-17.13216zm45.5068 3.77571c2.4908 0 4.2268 1.28893 4.4478 3.23785h-8.9596c.2528-1.94892 1.9885-3.23785 4.5118-3.23785zm.4821 10.05645c-2.7986 0-4.9982-1.8022-5.0561-3.5507h13.5648v-1.319c0-4.9971-3.471-8.9571-9.0862-8.9571-5.2993 0-9.0846 3.70928-9.0846 8.8318 0 5.2789 3.9932 8.7664 9.8625 8.7664 3.5953 0 6.1743-1.7175 7.5203-3.3621l-3.164-2.2093c-1.407 1.3082-2.6838 1.8-4.5556 1.8zm11.2587-18.3578767h4.506l.025 11.5392767h.061l7.545-7.04785h6.041l-7.82 7.37255 7.789 10.2514h-5.394l-5.348-7.4089h-.062l-2.837 2.6775v4.7442h-4.506z" fill="#000"/></g></svg>

<svg width="128" height="30" viewBox="0 0 128 30" fill="none" xmlns="http://www.w3.org/2000/svg">
<g clip-path="url(#clip0)">
<path d="M9.39319 15.0086C9.39319 11.9143 11.911 9.405 15.0193 9.405C18.1264 9.405 20.6453 11.9132 20.6453 15.0086C20.6453 18.105 18.1275 20.6132 15.0203 20.6132C11.9121 20.6132 9.39319 18.1039 9.39319 15.0096" fill="#00AA13"/>
<path d="M15.0182 0.0664434C6.7339 0.0664434 0.0181885 6.75644 0.0181885 15.0097C0.0181885 21.2047 3.77355 26.4932 9.22605 28.7947C9.60947 28.9558 10.0239 29.0298 10.4394 29.0114C10.8549 28.993 11.2611 28.8826 11.6288 28.6882C11.9964 28.4937 12.3164 28.2201 12.5655 27.887C12.8146 27.554 12.9866 27.1698 13.0693 26.7622C13.1967 26.1268 13.0997 25.4668 12.7949 24.8949C12.4901 24.323 11.9963 23.8746 11.3978 23.6261V23.625C8.01854 22.2139 5.64319 18.8893 5.64319 15.0097C5.64319 9.85073 9.83997 5.66894 15.0193 5.66894C20.1985 5.66894 24.3964 9.85073 24.3964 15.0097C24.3964 18.8882 22.021 22.2139 18.6407 23.6239V23.6261C18.0421 23.8748 17.5483 24.3235 17.2437 24.8957C16.939 25.4679 16.8424 26.1281 16.9702 26.7636C17.098 27.3991 17.4424 27.9705 17.9446 28.3804C18.4468 28.7903 19.0757 29.0132 19.7239 29.0111C20.0966 29.0088 20.4655 28.935 20.8103 28.7936C26.2628 26.4922 30.0193 21.2025 30.0193 15.0086C30.0193 6.7543 23.3025 0.0643005 15.0182 0.0643005" fill="#00AA13"/>
<path d="M73.5439 13.3511C73.5439 10.6479 71.6829 8.63785 68.7814 8.63785C65.8779 8.63785 64.0179 10.6489 64.0179 13.3521C64.0179 16.0532 65.8789 18.0664 68.7814 18.0664C71.6829 18.0664 73.5439 16.0543 73.5439 13.3521V13.3511ZM59.3486 13.3521C59.3486 8.38714 63.2914 4.5525 68.7814 4.5525C74.3014 4.5525 78.2132 8.38714 78.2132 13.3521C78.2132 18.3171 74.3014 22.1507 68.7814 22.1507C63.2925 22.1507 59.3486 18.3171 59.3486 13.3521ZM76.6104 25.7464H79.1336C80.49 25.7464 80.9636 25.2429 80.9636 24.0493V4.55785H85.6318V24.1114C85.6318 28.2289 83.9604 29.9882 79.5129 29.9882H76.6093V25.7454L76.6104 25.7464ZM51.8647 14.2607C51.8647 16.3179 49.7689 17.9614 47.1022 17.9614C44.0872 17.9614 42.2132 16.1904 42.2132 13.2493C42.2132 10.53 44.2136 8.66357 47.2929 8.66357C49.7379 8.66357 51.8647 10.3714 51.8647 12.3V14.2607ZM52.0554 4.54714V6.51214H51.9911C50.7847 5.24785 48.7854 4.55142 46.4047 4.55142C41.2929 4.55142 37.515 8.34642 37.515 13.2482C37.515 18.3407 41.3882 22.0725 46.5632 22.0725C48.8797 22.0725 50.8168 21.3439 51.9922 20.0475H52.0564V21.7425C52.0564 24.0193 50.0872 25.695 47.4836 25.695C44.8586 25.695 43.3307 24.9579 42.0043 23.6946L38.9647 26.6089C41.0014 28.7625 44.0722 29.9871 47.5789 29.9871C52.9136 29.9871 56.5629 26.4225 56.5629 21.6793V4.54714H52.0554ZM97.5622 8.32285C100.053 8.32285 101.789 9.61178 102.01 11.5607H93.0504C93.3032 9.61178 95.0389 8.32285 97.5622 8.32285ZM98.0443 18.3793C95.2457 18.3793 93.0461 16.5771 92.9882 14.8286H106.553V13.5096C106.553 8.5125 103.082 4.5525 97.4668 4.5525C92.1675 4.5525 88.3822 8.26178 88.3822 13.3843C88.3822 18.6632 92.3754 22.1507 98.2447 22.1507C101.84 22.1507 104.419 20.4332 105.765 18.7886L102.601 16.5793C101.194 17.8875 99.9172 18.3793 98.0454 18.3793H98.0443ZM109.303 0.0214233H113.809L113.834 11.5607H113.895L121.44 4.51285H127.481L119.661 11.8854L127.45 22.1368H122.056L116.708 14.7279H116.646L113.809 17.4054V22.1496H109.303V0.0214233Z" fill="black"/>
</g>
<defs>
<clipPath id="clip0">
<rect width="127.5" height="30" fill="white"/>
</clipPath>
</defs>
</svg>
